app/client/src/assets/icons/blueprintjs/16px/image-rotate-left.svg

<svg xmlns="http://www.w3.org/2000/svg" xml:space="preserve" viewBox="0 0 16 16"><path fill-rule="evenodd" d="M13 2h-1.59l.29-.29c.19-.18.3-.43.3-.71a1.003 1.003 0 0 0-1.71-.71l-2 2C8.11 2.47 8 2.72 8 3c0 .28.11.53.29.71l2 2a1.003 1.003 0 0 0 1.42-1.42l-.3-.29H13c.55 0 1 .45 1 1v3c0 .55.45 1 1 1s1-.45 1-1V5c0-1.66-1.34-3-3-3zm-5.5 9c.28 0 .5-.22.5-.5s-.22-.5-.5-.5-.5.22-.5.5.22.5.5.5zM10 7H1c-.55 0-1 .45-1 1v7c0 .55.45 1 1 1h9c.55 0 1-.45 1-1V8c0-.55-.45-1-1-1zm-1 6.33L7 12l-1 1-2-3-2 2.67V9h7v4.33z" clip-rule="evenodd"/></svg>

<?xml version="1.0" encoding="utf-8"?>
<!-- Generator: Adobe Illustrator 18.0.0, SVG Export Plug-In . SVG Version: 6.00 Build 0)  -->
<svg version="1.1" id="Layer_1" xmlns="http://www.w3.org/2000/svg" xmlns:xlink="http://www.w3.org/1999/xlink" x="0px" y="0px"
	 viewBox="0 0 16 16" enable-background="new 0 0 16 16" xml:space="preserve">
<g id="rotate_image_left">
	<g>
		<path fill-rule="evenodd" clip-rule="evenodd" d="M13,2h-1.59l0.29-0.29C11.89,1.53,12,1.28,12,1c0-0.55-0.45-1-1-1
			c-0.28,0-0.53,0.11-0.71,0.29l-2,2C8.11,2.47,8,2.72,8,3c0,0.28,0.11,0.53,0.29,0.71l2,2C10.47,5.89,10.72,6,11,6
			c0.55,0,1-0.45,1-1c0-0.28-0.11-0.53-0.29-0.71L11.41,4H13c0.55,0,1,0.45,1,1v3c0,0.55,0.45,1,1,1s1-0.45,1-1V5
			C16,3.34,14.66,2,13,2z M7.5,11C7.78,11,8,10.78,8,10.5C8,10.22,7.78,10,7.5,10S7,10.22,7,10.5C7,10.78,7.22,11,7.5,11z M10,7H1
			C0.45,7,0,7.45,0,8v7c0,0.55,0.45,1,1,1h9c0.55,0,1-0.45,1-1V8C11,7.45,10.55,7,10,7z M9,13.33L7,12l-1,1l-2-3l-2,2.67V9h7V13.33z
			"/>
	</g>
</g>
</svg>
